X:519
T:
N:
S:Efter »Florsen» i Burs.
R:vals
O:Gotland, Burs
M:3/4
L:1/8
K:F
A2 (AG) (AB)|c2 (BA) B2|G2 (BG) B2|A2 (fe) f2|A2 (AG) (AB)|
c2 (BA) B2|G2 f2 eg|f4 z2::L(cB) d=B c2|L(cB) d=B c2|
(cB) (GB) (AG)|A2 F2 F2|L(cB) d=B c2|L(cB) d=B c2|
(cB) (GB) (AG)|F4 z2::{B}G2 E2 E2|F2 (FE) (FA)|
G2 E2 E2|F4 FA|G2 E2 E2|F2 (FE) (FA)|G2 E2 E2|
F4 Ac|f3 (cAc)|(ed)(dB)(AB)|(BA)(AF)(EG)|
LB2 LA2 LF2|f3 (cAc)|(ed)(dB)(AB)|(Ac)(ef)(eg)|f4 z2:|

